X:1
T:Title
%%score { 1 | 2 }
L:1/8
M:6/8
K:Bb
V:1 treble nm="Grand Piano"
V:2 bass 
V:1
 z3 z2[Q:1/4=92] [DF] | [Fd][Fd][Fd] ccc | BBB F2 F | GGG AAA | B3- B2 F | ccc cBc | %6
[M:5/8] [Fd][Fd][Fd] [DB]2 |[M:1/8] [Fd] |[M:3/4] cc c[=EG] [FA][GB] |[M:5/8] [Ac]-[Ac]- [Ac]3 | %10
[M:3/16] e3/2 |[M:3/4] dd d _d2 =d | [GB]2 G F2 B | AA B c2 B | d4- dF |[M:5/8] GG[GB] [Ge]2 | %16
[M:1/8] [EG] |[M:7/8] [DF][DF][DB] [Fd]3 [DB] |[M:3/4] cd e d2 c |[M:5/8] [DB]-[DB]- [DB]3 |] %20
V:2
 z3 z2 [B,,B,] | [B,,B,][B,,B,][B,,B,] [F,A,F][F,A,F][F,A,F] | [G,B,D][G,B,D][G,B,D] [B,D]2 [B,D] | %3
 [E,B,E][E,B,E][E,B,E] [F,E][F,E][F,CE] | [B,D]3- [B,D]2 [B,D] | %5
 [F,A,E][F,A,E][F,A,E] [F,A,E][F,B,D][F,A,E] |[M:5/8] [B,,B,][B,,B,][B,,B,] [B,,B,]2 | %7
[M:1/8] [B,,B,] |[M:3/4] [F,A,F][F,A,F] [F,A,F][C,C] [C,C][C,C] |[M:5/8] [F,C]-[F,C]- [F,C]3 | %10
[M:3/16][K:treble] [F,A,F]3/2 |[M:3/4] [B,F][B,F] [B,F] [B,=E]2 [B,F] | %12
 [E,B,]2 [E,B,E] [B,D]2 [B,D] | [F,CF][F,CF] [F,B,D] [F,A,E]2 [F,B,D] | %14
 [B,F]4- [B,F][K:bass][B,D] |[M:5/8] [E,B,E][E,B,E][E,B,] [E,B,]2 |[M:1/8] [E,B,] | %17
[M:7/8] [B,,B,][B,,B,][B,,B,] [B,,B,]3 [B,,B,] |[M:3/4] [F,A,E][F,B,F] [F,CF] [F,B,F]2 [F,A,E] | %19
[M:5/8] [B,,B,]-[B,,B,]- [B,,B,]3 |] %20

